symbols/web/screenshot_monitor/materialsymbolsoutlined/screenshot_monitor_wght700gradN25_24px.svg

<svg xmlns="http://www.w3.org/2000/svg" height="24" width="24"><path d="M5.375 11.375H7.9v-2.5h2.5V6.35H5.375Zm8.25 4.25h5.025V10.6h-2.525v2.5h-2.5ZM7.7 22v-2.35H4.425q-1.25 0-2.137-.888-.888-.887-.888-2.137V5.4q0-1.25.888-2.138.887-.887 2.137-.887h15.15q1.25 0 2.138.887.887.888.887 2.138v11.225q0 1.25-.887 2.137-.888.888-2.138.888H16.3V22Zm-3.275-5.375h15.15V5.4H4.425v11.225Zm0 0V5.4v11.225Z"/></svg>

<svg xmlns="http://www.w3.org/2000/svg" height="24" width="24"><path d="M5.375 11.375H7.9V8.875H10.4V6.35H5.375ZM13.625 15.625H18.65V10.6H16.125V13.1H13.625ZM7.7 22V19.65H4.425Q3.175 19.65 2.288 18.762Q1.4 17.875 1.4 16.625V5.4Q1.4 4.15 2.288 3.262Q3.175 2.375 4.425 2.375H19.575Q20.825 2.375 21.713 3.262Q22.6 4.15 22.6 5.4V16.625Q22.6 17.875 21.713 18.762Q20.825 19.65 19.575 19.65H16.3V22ZM4.425 16.625H19.575Q19.575 16.625 19.575 16.625Q19.575 16.625 19.575 16.625V5.4Q19.575 5.4 19.575 5.4Q19.575 5.4 19.575 5.4H4.425Q4.425 5.4 4.425 5.4Q4.425 5.4 4.425 5.4V16.625Q4.425 16.625 4.425 16.625Q4.425 16.625 4.425 16.625ZM4.425 16.625Q4.425 16.625 4.425 16.625Q4.425 16.625 4.425 16.625V5.4Q4.425 5.4 4.425 5.4Q4.425 5.4 4.425 5.4Q4.425 5.4 4.425 5.4Q4.425 5.4 4.425 5.4V16.625Q4.425 16.625 4.425 16.625Q4.425 16.625 4.425 16.625Z"/></svg>
